Simply-Green-Circles/scalable/apps/qtractor.svg

<svg xmlns="http://www.w3.org/2000/svg" width="48" height="48" viewBox="0 0 12.7 12.7"><path d="M6.34.07a6.29 6.29 0 0 0-6.29 6.3 6.29 6.29 0 0 0 6.3 6.28 6.29 6.29 0 0 0 6.28-6.29A6.29 6.29 0 0 0 6.34.07zM6.32 1l.01.01a5.4 5.4 0 0 1 5.4 5.4 5.4 5.4 0 0 1-5.4 5.41 5.4 5.4 0 0 1-5.41-5.4A5.4 5.4 0 0 1 6.32 1zm1.767 1.334c-.127 0-.252.017-.373.05-.683.185-1.175.857-1.273 1.738-.514.296-1.41.995-1.847 1.641-.068.1-.123.23-.171.37l-.065.42h.831c.148-.155.304-.305.529-.42.374-.138.676-.17 1.09-.18.503.921 1.381 1.404 2.173 1.192 1.004-.271 1.534-1.557 1.184-2.871-.301-1.133-1.17-1.943-2.078-1.94zm.17.345A2.09 1.522 73.864 0 1 10 4.309a2.09 1.522 73.864 0 1-.882 2.43 2.09 1.522 73.864 0 1-2.042-1.585 2.09 1.522 73.864 0 1 .88-2.43 2.09 1.522 73.864 0 1 .302-.045zM3.725 6.974a.21.21 0 1 0 0 .422h2.11a.21.21 0 1 0 0-.422h-2.11zm-.633.844a.42.42 0 0 0-.421.422v1.265a.42.42 0 0 0 .421.422h3.375a.42.42 0 0 0 .422-.422V8.24a.42.42 0 0 0-.422-.422H3.092z" fill="#2ca02c"/></svg>

<?xml version="1.0" encoding="UTF-8" standalone="no"?>
<svg
   xmlns:dc="http://purl.org/dc/elements/1.1/"
   xmlns:cc="http://creativecommons.org/ns#"
   xmlns:rdf="http://www.w3.org/1999/02/22-rdf-syntax-ns#"
   xmlns:svg="http://www.w3.org/2000/svg"
   xmlns="http://www.w3.org/2000/svg"
   xmlns:sodipodi="http://sodipodi.sourceforge.net/DTD/sodipodi-0.dtd"
   xmlns:inkscape="http://www.inkscape.org/namespaces/inkscape"
   width="48"
   height="48"
   viewBox="0 0 12.7 12.7"
   version="1.1"
   id="svg4"
   sodipodi:docname="qtractor.svg"
   inkscape:version="0.92.4 (5da689c313, 2019-01-14)">
  <metadata
     id="metadata10">
    <rdf:RDF>
      <cc:Work
         rdf:about="">
        <dc:format>image/svg+xml</dc:format>
        <dc:type
           rdf:resource="http://purl.org/dc/dcmitype/StillImage" />
        <dc:title></dc:title>
      </cc:Work>
    </rdf:RDF>
  </metadata>
  <defs
     id="defs8" />
  <sodipodi:namedview
     pagecolor="#ffffff"
     bordercolor="#666666"
     borderopacity="1"
     objecttolerance="10"
     gridtolerance="10"
     guidetolerance="10"
     inkscape:pageopacity="0"
     inkscape:pageshadow="2"
     inkscape:window-width="1087"
     inkscape:window-height="480"
     id="namedview6"
     showgrid="false"
     inkscape:zoom="4.9166667"
     inkscape:cx="2.1355932"
     inkscape:cy="24"
     inkscape:window-x="0"
     inkscape:window-y="25"
     inkscape:window-maximized="0"
     inkscape:current-layer="svg4" />
  <path
     d="M 6.34,0.07 A 6.29,6.29 0 0 0 0.05,6.37 6.29,6.29 0 0 0 6.35,12.65 6.29,6.29 0 0 0 12.63,6.36 6.29,6.29 0 0 0 6.34,0.07 Z M 6.32,1 6.33,1.01 a 5.4,5.4 0 0 1 5.4,5.4 5.4,5.4 0 0 1 -5.4,5.41 A 5.4,5.4 0 0 1 0.92,6.42 5.4,5.4 0 0 1 6.32,1 Z M 8.087,2.334 C 7.96,2.334 7.835,2.351 7.714,2.384 7.031,2.569 6.539,3.241 6.441,4.122 5.927,4.418 5.031,5.117 4.594,5.763 4.526,5.863 4.471,5.993 4.423,6.133 L 4.358,6.553 H 5.189 C 5.337,6.398 5.493,6.248 5.718,6.133 6.092,5.995 6.394,5.963 6.808,5.953 7.311,6.874 8.189,7.357 8.981,7.145 9.985,6.874 10.515,5.588 10.165,4.274 9.864,3.141 8.995,2.331 8.087,2.334 Z m 0.17,0.345 A 2.09,1.522 73.864 0 1 10,4.309 2.09,1.522 73.864 0 1 9.118,6.739 2.09,1.522 73.864 0 1 7.076,5.154 2.09,1.522 73.864 0 1 7.956,2.724 2.09,1.522 73.864 0 1 8.258,2.679 Z M 3.725,6.974 a 0.211,0.211 0 1 0 0,0.422 h 2.11 a 0.211,0.211 0 1 0 0,-0.422 z M 3.092,7.818 A 0.42,0.42 0 0 0 2.671,8.24 V 9.505 A 0.42,0.42 0 0 0 3.092,9.927 H 6.467 A 0.42,0.42 0 0 0 6.889,9.505 V 8.24 A 0.42,0.42 0 0 0 6.467,7.818 Z"
     id="path2"
     inkscape:connector-curvature="0"
     style="fill:#2ca02c" />
</svg>
